!!!id: BC041
!!!page: 53
!!!COM: (Folklore)
!!!PTL@@FR: Les 100 plus belles chansons
!!!OTL@@FR: Au fond des campagnes
!!!PUB: La Bonne Chanson, inc.
!!!YEM: On ne peut reproduire, enregistrer ou diffuser en tout ou en partie le présent ouvrage, sous quelque procédé que ce soit, électronique, mécanique, photographique, sonore, magnétique ou autre, sans avoir obtenu au préalable l'autorisation écrite de l'éditrice.
!!!PDT: 2011
!!!SMA: 2012 Bibliothèque nationale du Québec; Biblothèque nationale du Canada
!!!AGN-Laforte: Chanson strophique, 6:4(6)+R4(6)
!!!AGN-type: nature? rustique?
!!!AGN-rime: croisée (abab)
**kern	**text	**text	**text	**text	**text	**text
*clefG2	*	*	*	*	*	*
*k[f#]	*	*	*	*	*	*
*D:	*	*	*	*	*	*
!!!OMD:Gaiement
*M6/8	*	*	*	*	*	*
*	*v:1	*v:2	*v:3	*v:4	*v:5	*v:6
*	*pline:1	*pline:5	*pline:9	*pline:13	*pline:17	*pline:21
8b	Les	On	À	La	Chez	Vo-
=1	=1	=1	=1	=1	=1	=1
4b	gens	a	l'au-	vie	nous	-yez
8cc	de	sans	-be	à	les	les
!!v.3: circumflex added; originally fraiche
4b	la	qu'il	fraîche	la	en-	jeu-
8a	cam-	en	et	cam-	-fants	-nes
=2	=2	=2	=2	=2	=2	=2
4.g	-pa-	coû-	clai-	-pa-	pous-	fil-
8g	-gne	-te	-re,	-gne	-sent	-les
*	*rp:a	*rp:u	*rp:ɛ	*rp:a	*rp:ɑ̃	*rp:i
*	*rf:aɲ	*rf:ut,ə	*rf:ɛʁ,ə	*rf:aɲ	*rf:ɑ̃	*rf:ij,ə
*	*rs:a	*rs:c	*rs:e	*rs:a	*rs:h	*rs:j
8r	.	.	.	.	.	.
*	*pline:2	*pline:6	*pline:10	*pline:14	*pline:18	*pline:22
8dd	Con-	L'air	Le	A	Com-	Et
=3	=3	=3	=3	=3	=3	=3
4dd	-nais-	pur	soir	bien	-me	leurs
8dd	-sent	et	au	ses	des	mi-
4ee	leur	le	coin	du-	cham-	-nois
8ee	bon-	so-	du	-re-	-pi-	char-
!!LO:PB:g=original
=4	=4	=4	=4	=4	=4	=4
4.dd(	-heur,	-leil,	feu,	-tés,	-gnons,	-mants,
*	*rp:œ	*rp:ɛ	*rp:ø	*rp:e	*rp:ɔ̃	*rp:ɑ̃
*	*rf:œʁ	*rf:ɛj	*rf:ø	*rf:te	*rf:ɲɔ̃	*rf:ɑ̃
*	*rs:b	*rs:d	*rs:f	*rs:g	*rs:i	*rs:h
8dd)	.	.	.	.	.	.
8r	.	.	.	.	.	.
*	*pline:1r	*pline:5r	*pline:9r	*pline:13r	*pline:17r	*pline:21r
8b	Les	On	À	La	Chez	Vo-
=5	=5	=5	=5	=5	=5	=5
4b	gens	a	l'au-	vie	nous	-yez
8cc	de	sans	be	à	les	les
4b	la	qu'il	fraîche	la	en-	jeu-
8a	cam-	en	et	cam-	-fants	-nes
=6	=6	=6	=6	=6	=6	=6
4.g	-pa-	coû-	clai-	-pa-	pous-	fil-
8g	-gne	-te	-re,	-gne	-sent	-les
8r	.	.	.	.	.	.
*	*pline:2r	*pline:6r	*pline:10r	*pline:14r	*pline:18r	*pline:22r
8dd	Con-	L'air	Le	A	Com-	Et
=7	=7	=7	=7	=7	=7	=7
4dd	-nais-	pur	soir	bien	-me	leurs
8dd	-sant	et	au	ses	des	mi-
4ee	leur	le	coin	du-	cham-	-nois
8ee	bon-	so-	du	-re-	-pi-	char-
!!LO:PB:g=original
=8	=8	=8	=8	=8	=8	=8
4.dd(	-heur.	-leil,	feu,	-tés,	-gnons,	-mants,
8dd)	.	.	.	.	.	.
8r	.	.	.	.	.	.
*	*pline:3	*pline:7	*pline:11	*pline:15	*pline:19	*pline:23
8dd	La	Les	Comm[e]	Mais	Re-	C'est
=9	=9	=9	=9	=9	=9	=9
4ee	plain[e]	bois,	on	au	-gar-	la
8ee	et	les	peut	moins	-dez	gaie-
4ee	la	lar-	bien	l'on	leurs	-té
8b	mon-	-ges	y	y	fri-	que
=10	=10	=10	=10	=10	=10	=10
4.cc	-ta-	rou-	fai-	ga-	-mous-	bril-
8cc	-gne,	-tes,	-re	-gne	-ses,	-le
*	*rp:a	*rp:u	*rp:ɛ	*rp:a	*rp:u	*rp:i
*	*rf:aɲ	*rf:ut,ə	*rf:ɛʁ,ə	*rf:aɲ	*rf:u	*rf:ij,ə
*	*rs:a	*rs:c	*rs:e	*rs:a	*rs:x	*rs:j
8r	.	.	.	.	.	.
*	*pline:4	*pline:8	*pline:12	*pline:16	*pline:20	*pline:24
8cc	Est-	Et	Sa	La	Sont-	Sur
=11	=11	=11	=11	=11	=11	=11
4dd	-il	l'ho-	priè-	force	-ils	ces
8dd	rien	-ri-	-re	et	as-	fronts
4dd	de	-zon	au	la	-sez	des
8a	meil-	ver-	bon	san-	mi-	vingt
!!LO:PB:g=original
=12	=12	=12	=12	=12	=12	=12
4.b(	-leur?	-meil.	Dieu!	-té.	-gnons!	ans.
*	*rp:œ	*rp:ɛ	*rp:ø	*rp:e	*rp:ɔ̃	*rp:ɑ̃
*	*rf:œʁ	*rf:ɛj	*rf:ø	*rf:te	*rf:ɲɔ̃	*rf:ɑ̃
*	*rs:b	*rs:d	*rs:f	*rs:g	*rs:i	*rs:h
8b)	.	.	.	.	.	.
8r	.	.	.	.	.	.
8r	.	.	.	.	.	.
=13||	=13||	=13||	=13||	=13||	=13||	=13||
*	*pline:R1	*	*	*	*	*
!!LO:TX:a:B:t=REFRAIN
4.g	Au	.	.	.	.	.
8a	fond	.	.	.	.	.
8b	des	.	.	.	.	.
8cc	cam-	.	.	.	.	.
=14	=14	=14	=14	=14	=14	=14
4.b(	-pa-	.	.	.	.	.
4dd)	-gnes,	.	.	.	.	.
8r	.	.	.	.	.	.
=15	=15	=15	=15	=15	=15	=15
*	*pline:R2	*	*	*	*	*
4a	Qu'il	.	.	.	.	.
8cc	fait	.	.	.	.	.
4b	bon,	.	.	.	.	.
*	*bis	*	*	*	*	*
8a	fait	.	.	.	.	.
!!LO:PB:g=original
=16	=16	=16	=16	=16	=16	=16
4g	bon,	.	.	.	.	.
8e	fait	.	.	.	.	.
4d	bon,	.	.	.	.	.
*	*Xbis	*	*	*	*	*
8r	.	.	.	.	.	.
=17	=17	=17	=17	=17	=17	=17
*	*pline:R1r	*	*	*	*	*
4.g	Au	.	.	.	.	.
8a	fond	.	.	.	.	.
8b	des	.	.	.	.	.
8cc	cam-	.	.	.	.	.
=18	=18	=18	=18	=18	=18	=18
4.b(	-pa-	.	.	.	.	.
4dd)	-gnes,	.	.	.	.	.
8r	.	.	.	.	.	.
=19	=19	=19	=19	=19	=19	=19
*	*pline:R2a3	*	*	*	*	*
4a	Qu'il	.	.	.	.	.
8cc	fait	.	.	.	.	.
4b	bon	.	.	.	.	.
8a	res-	.	.	.	.	.
=20	=20	=20	=20	=20	=20	=20
4.g(	-ter!	.	.	.	.	.
8g)	.	.	.	.	.	.
8r	.	.	.	.	.	.
==	==	==	==	==	==	==
!!!EED: Isaac Howie
!!!EEV: 2025/June/10
